X:4161
T:Merrily Kiss the Quaker
O:england
M:6/8
L:1/8
K:G
D|GAB DED|cBA BGE|GAB DED|ABA BGE|
GAB DED|cBA BGE|GBA DED|G3 G2|
A|BBB BAG|ABA GBd|efe edB|ege2a2 gfe|
def gfe|dBG AGE|GAB DED|G3 G2|


